assets/images/eye-icon.svg

<?xml version="1.0" encoding="UTF-8" standalone="no"?><!DOCTYPE svg PUBLIC "-//W3C//DTD SVG 1.1//EN" "http://www.w3.org/Graphics/SVG/1.1/DTD/svg11.dtd"><svg width="100%" height="100%" viewBox="0 0 1112 1112" version="1.1" xmlns="http://www.w3.org/2000/svg" xmlns:xlink="http://www.w3.org/1999/xlink" xml:space="preserve" xmlns:serif="http://www.serif.com/" style="fill-rule:evenodd;clip-rule:evenodd;stroke-linejoin:round;stroke-miterlimit:2;"><path d="M1031.75,555.556c-62.831,-97.553 -147.413,-158.589 -236.235,-218.874c-119.358,-81.012 -360.553,-79.515 -479.911,-0c-89.339,59.516 -173.404,121.321 -236.235,218.874c54.977,84.738 123.905,152.219 206.783,202.443c82.879,50.223 172.681,75.334 269.408,75.334c96.726,0 186.528,-25.111 269.407,-75.334c82.878,-50.224 151.806,-117.705 206.783,-202.443Zm79.365,-0c0,14.054 -4.133,28.315 -12.401,42.782c-57.87,95.073 -135.685,171.235 -233.445,228.485c-97.759,57.25 -200.996,85.875 -309.709,85.875c-108.714,0 -211.951,-28.728 -309.71,-86.185c-97.76,-57.457 -175.575,-133.515 -233.445,-228.175c-8.267,-14.467 -12.401,-28.728 -12.401,-42.782c0,-14.055 4.134,-28.316 12.401,-42.783c57.87,-94.66 135.685,-170.718 233.445,-228.175c97.759,-57.457 200.996,-86.185 309.71,-86.185c108.713,-0 211.95,28.728 309.709,86.185c97.76,57.457 175.575,133.515 233.445,228.175c8.268,14.467 12.401,28.728 12.401,42.783Z" style="fill:#fff;fill-rule:nonzero;"/><path d="M555.556,237.302c119.581,-0 216.666,97.085 216.666,216.666c0,119.582 -97.085,216.667 -216.666,216.667c-119.582,-0 -216.667,-97.085 -216.667,-216.667c-0,-119.581 97.085,-216.666 216.667,-216.666Zm23.214,92.857c-0,-6.449 -2.257,-11.93 -6.771,-16.444c-4.514,-4.514 -9.995,-6.771 -16.443,-6.771c-40.303,0 -74.883,14.429 -103.739,43.285c-28.857,28.857 -43.285,63.437 -43.285,103.739c-0,6.449 2.257,11.93 6.771,16.444c4.513,4.514 9.995,6.771 16.443,6.771c6.448,-0 11.93,-2.257 16.443,-6.771c4.514,-4.514 6.771,-9.995 6.771,-16.444c0,-27.728 9.834,-51.426 29.502,-71.093c19.667,-19.668 43.365,-29.502 71.094,-29.502c6.448,0 11.929,-2.257 16.443,-6.771c4.514,-4.514 6.771,-9.995 6.771,-16.443Z" style="fill:#fff;"/></svg>

<?xml version="1.0" encoding="UTF-8" standalone="no"?>
<!DOCTYPE svg PUBLIC "-//W3C//DTD SVG 1.1//EN" "http://www.w3.org/Graphics/SVG/1.1/DTD/svg11.dtd">
<svg width="100%" height="100%" viewBox="0 0 200 200" version="1.1" xmlns="http://www.w3.org/2000/svg" xmlns:xlink="http://www.w3.org/1999/xlink" xml:space="preserve" xmlns:serif="http://www.serif.com/" style="fill-rule:evenodd;clip-rule:evenodd;stroke-linejoin:round;stroke-miterlimit:2;">
    <g transform="matrix(0.166667,0,0,0.166667,14.8143,17.4605)">
        <path d="M1031.75,555.556C968.919,458.003 884.337,396.967 795.515,336.682C676.157,255.67 434.962,257.167 315.604,336.682C226.265,396.198 142.2,458.003 79.369,555.556C134.346,640.294 203.274,707.775 286.152,757.999C369.031,808.222 458.833,833.333 555.56,833.333C652.286,833.333 742.088,808.222 824.967,757.999C907.845,707.775 976.773,640.294 1031.75,555.556ZM1111.12,555.556C1111.12,569.61 1106.98,583.871 1098.71,598.338C1040.84,693.411 963.029,769.573 865.269,826.823C767.51,884.073 664.273,912.698 555.56,912.698C446.846,912.698 343.609,883.97 245.85,826.513C148.09,769.056 70.275,692.998 12.405,598.338C4.138,583.871 0.004,569.61 0.004,555.556C0.004,541.501 4.138,527.24 12.405,512.773C70.275,418.113 148.09,342.055 245.85,284.598C343.609,227.141 446.846,198.413 555.56,198.413C664.273,198.413 767.51,227.141 865.269,284.598C963.029,342.055 1040.84,418.113 1098.71,512.773C1106.98,527.24 1111.12,541.501 1111.12,555.556Z" style="fill:rgb(94,94,94);fill-rule:nonzero;"/>
        <path d="M555.556,237.302C675.137,237.302 772.222,334.387 772.222,453.968C772.222,573.55 675.137,670.635 555.556,670.635C435.974,670.635 338.889,573.55 338.889,453.968C338.889,334.387 435.974,237.302 555.556,237.302ZM578.77,330.159C578.77,323.71 576.513,318.229 571.999,313.715C567.485,309.201 562.004,306.944 555.556,306.944C515.253,306.944 480.673,321.373 451.817,350.229C422.96,379.086 408.532,413.666 408.532,453.968C408.532,460.417 410.789,465.898 415.303,470.412C419.816,474.926 425.298,477.183 431.746,477.183C438.194,477.183 443.676,474.926 448.189,470.412C452.703,465.898 454.96,460.417 454.96,453.968C454.96,426.24 464.794,402.542 484.462,382.875C504.129,363.207 527.827,353.373 555.556,353.373C562.004,353.373 567.485,351.116 571.999,346.602C576.513,342.088 578.77,336.607 578.77,330.159Z" style="fill:rgb(94,94,94);"/>
    </g>
    <g transform="matrix(0.166667,0,0,0.166667,-0.000666666,2.64554)">
        <path d="M1031.75,555.556C968.919,458.003 884.337,396.967 795.515,336.682C676.157,255.67 434.962,257.167 315.604,336.682C226.265,396.198 142.2,458.003 79.369,555.556C134.346,640.294 203.274,707.775 286.152,757.999C369.031,808.222 458.833,833.333 555.56,833.333C652.286,833.333 742.088,808.222 824.967,757.999C907.845,707.775 976.773,640.294 1031.75,555.556ZM1111.12,555.556C1111.12,569.61 1106.98,583.871 1098.71,598.338C1040.84,693.411 963.029,769.573 865.269,826.823C767.51,884.073 664.273,912.698 555.56,912.698C446.846,912.698 343.609,883.97 245.85,826.513C148.09,769.056 70.275,692.998 12.405,598.338C4.138,583.871 0.004,569.61 0.004,555.556C0.004,541.501 4.138,527.24 12.405,512.773C70.275,418.113 148.09,342.055 245.85,284.598C343.609,227.141 446.846,198.413 555.56,198.413C664.273,198.413 767.51,227.141 865.269,284.598C963.029,342.055 1040.84,418.113 1098.71,512.773C1106.98,527.24 1111.12,541.501 1111.12,555.556Z" style="fill:white;fill-rule:nonzero;"/>
        <path d="M555.556,237.302C675.137,237.302 772.222,334.387 772.222,453.968C772.222,573.55 675.137,670.635 555.556,670.635C435.974,670.635 338.889,573.55 338.889,453.968C338.889,334.387 435.974,237.302 555.556,237.302ZM578.77,330.159C578.77,323.71 576.513,318.229 571.999,313.715C567.485,309.201 562.004,306.944 555.556,306.944C515.253,306.944 480.673,321.373 451.817,350.229C422.96,379.086 408.532,413.666 408.532,453.968C408.532,460.417 410.789,465.898 415.303,470.412C419.816,474.926 425.298,477.183 431.746,477.183C438.194,477.183 443.676,474.926 448.189,470.412C452.703,465.898 454.96,460.417 454.96,453.968C454.96,426.24 464.794,402.542 484.462,382.875C504.129,363.207 527.827,353.373 555.556,353.373C562.004,353.373 567.485,351.116 571.999,346.602C576.513,342.088 578.77,336.607 578.77,330.159Z" style="fill:white;"/>
    </g>
</svg>
